X: 232
T:Up an Doon da Harbour
S:Tom Anderson &amp; Tom Georgeson (eds): Da Mirrie Dancers, 3rd ed. 1989
M:C
L:1/8
Z: Jack Campin
K:AMin
AB cd e2(dc)|vBug vg2 (uBA)G(B|uAB)cd e2(ed)|^cABG A2-A2:|
Aa-a2 edcA  | Bg-  g2   BAGB  | Aa-a2 edcd  |^cABG A2-A2:|

